storage/app/icons/phosphoricons/fill/brackets-angle-fill.svg

<svg xmlns="http://www.w3.org/2000/svg" fill="currentColor" viewBox="0 0 256 256"><path d="M216 40H40a16 16 0 0 0-16 16v144a16 16 0 0 0 16 16h176a16 16 0 0 0 16-16V56a16 16 0 0 0-16-16M103 180a8 8 0 0 1-13.95 8l-32-56a8 8 0 0 1 0-7.94l32-56A8 8 0 0 1 103 76l-29.79 52Zm96-48-32 56a8 8 0 0 1-13.9-7.94l29.74-52L153.05 76A8 8 0 1 1 167 68l32 56a8 8 0 0 1 0 8"/></svg>

<svg xmlns="http://www.w3.org/2000/svg" viewBox="0 0 256 256" fill="currentColor"><path d="M216,40H40A16,16,0,0,0,24,56V200a16,16,0,0,0,16,16H216a16,16,0,0,0,16-16V56A16,16,0,0,0,216,40ZM103,180A8,8,0,0,1,89.05,188l-32-56a8,8,0,0,1,0-7.94l32-56A8,8,0,0,1,103,76L73.21,128ZM199,132l-32,56a8,8,0,0,1-13.9-7.94l29.74-52L153.05,76A8,8,0,1,1,167,68l32,56A8,8,0,0,1,199,132Z"/></svg>
